X:1
T:Charles Wesley 1707-1788
T:LYNGHAM C.M.rep. Thomas Jarman
T:O for a thousand tongues to sing
T:Public Domain.
T:Public Domain.
Z:Public Domain.
%%score { ( 1 2 ) | ( 3 4 ) }
L:1/8
Q:1/2=80
M:2/2
K:F
V:1 treble nm="Pipe Organ"
V:2 treble 
V:3 bass 
V:4 bass 
V:1
 F4 A3 B | (c>dcB A2) B2 | (A2 F2) (G2 E2) | F6 A2 | B2 A2 G2 F2 | G6 G2 | (A>GAB c2) d2 | c4 =B4 | %8
 c8 | c4 c2 c2 | (A3 G F2) A2 | ((B2 A2 G2)) F2 | G6 | z2 | z4 z2 F2 | B2 B2 B2 B2 | A6 | A2 | %18
 G2 G2 (GA) (B>G) | c6 | c2 | (d2 c2 B2) A2 | G6 G2 | F8 |] %24
V:2
 C4 C3 C | C6 D2 | C4 C4 | C6 F2 | E2 F2 G2 D2 | E6 E2 | F6 F2 | E4 D4 | E8 | F4 F2 F2 | F6 F2 | %11
w: 1.O For a|thous- and|tongues to|sing my|dear re- deem- ers|praise, my|dear re-|deem- er's|praise,|the glor- ies|of my|
w: 2.Je- sus! the|name that|charms our|fears, that|bids our sor- rows|cease; that|bids our|sor- rows|cease;|'tis mu- sic|in the|
w: 3.He breaks the|power of|can- celled|sin, he|sets the prison- er|free, he|sets the|prsion- er|free;|his blood can|make the|
w: 4.He speaks: and|listen- ing|to his|voice, new|life the dead re-|ceive; new|life the|dead re-|ceive!|the mourn- ful|bro- ken|
w: 5.Hear him, ye|deaf; his|praise, ye|dumb, your|loos- end tongues em-|ploy: your|loos- end|tongues em-|ploy:|ye blind, be-|hold your|
w: 6.My gra- cious|mas- ter|and my|God, as-|sist me to pro-|claim: as-|sist me|to pro-|claim|and spread through|all the|
 E2 F2 G2 D2 | E6 | x2 | z4 z2 F2 | D2 D2 D2 D2 | C6 | C2 | C2 E2 (EF)(G>E) | (F2 E2 F2) | F2 | %21
w: God * * and|King,||the|tri- umphs of his|grace!|the|tri- umphs of * his *|grace! * *|the|
w: sin- * * ner's|ears,||'tis|life and health and|peace!|tis|life and health * and *|peace! * *|'tis|
w: foul- * * est|clean:||his|blood a- vailed for|me!|his|blood a- vailed * for *|me! * *|his|
w: hearts * * re-|joice:||the|hum- ble poor bel-|ieve,|the|hum- ble poor * bel- *|ieve, * *|the|
w: Sa- * * viour|come;||and|leap, ye lame, for|joy!|and|leap ye lame * for *|joy! * *|and|
w: earth * * a-|broad||the|hon- ours of thy|name,|the|hon- ours of * thy *|name, * *|the|
 (F4 E2) F2 | F4 E4 | F8 |] %24
w: tri- * umhs|of his|grace!|
w: life * and|health and|peace!|
w: blood * a-|vailed for|me!|
w: hum- * ble|poor bel-|ieve.|
w: leap * ye|lame for|joy!|
w: hon- * ours|of thy|name!|
V:3
 A,4 F,3 G, | (A,>B,A,G, F,2) F,2 | (F,2 A,2) (B,2 G,2) | A,6 C2 | C2 C2 C2 =B,2 | C6 C2 | %6
 (C3 B, A,2) A,2 | G,4 G,4 | G,8 | A,4 A,2 A,2 | (C3 B, A,2) C2 | C6 =B,2 | C6 | C2 | %14
 F,2 G,2 A,2 F,2 | F,6 F,2 | F,2 C2 A,2 | F,2 | (E,2 G,2 C2) B,2 | A,2 G,2 A,2 | A,2 | %21
 B,2 C2 C2 C2 | C6 B,2 | A,8 |] %24
V:4
 F,4 F,3 F, | F,6 B,,2 | C,4 C,4 | F,6 F,2 | G,2 F,2 E,2 D,2 | C,6 C,2 | F,6 D,2 | G,4 G,,4 | C,8 | %9
w: |||||||||
w: |||||||||
w: |||||||||
 F,4 F,2 F,2 | F,6 F,2 | (G,2 F,2 E,2) D,2 | C,6 | C,2 | F,2 G,2 A,2 F,2 | B,,6 B,,2 | %16
w: ||||the|tri- umphs of his|grace! the|
w: ||||'tis|life and health and|peace! 'tis|
w: ||||...|||
 F,2 F,2 F,2 | F,2 | C,6 C,2 | F,2 G,2 F,2 | F,2 | B,2 A,2 G,2 F,2 | C,6 C,2 | F,,8 |] %24
w: tri- umphs of|his|grace! the|tri- umphs of|his|grace, the tri- umphs|of his|grace!|
w: life and health|and|peace! 'tis|life and health|and|peace, 'tis life and|health and|peace!|
w: ||||||||

